build/img/midea-grey.svg

<svg width="104" height="64" viewBox="0 0 104 64" fill="none" xmlns="http://www.w3.org/2000/svg">
<path d="M48.8111 28.6083V42.3026H52.0972V28.6083H48.8111ZM42.896 23.3885H39.516C39.1404 23.3885 39.203 23.7263 39.203 23.7263C39.2656 24.1561 39.3595 24.8623 39.3595 26.3362C39.3595 29.5908 38.9526 34.2579 35.3222 38.7101L35.0719 39.0172C35.0719 39.0172 32.8811 24.0333 32.8498 23.757C32.8498 23.757 32.8498 23.4192 32.5368 23.4192H29.1255C28.8126 23.4192 28.8126 23.757 28.8126 23.757C28.7187 25.4764 27.7485 39.9076 17.0138 42.2411C19.2984 42.4868 22.0525 41.7806 24.4623 40.3375C27.4355 38.5259 29.4385 35.8546 30.0957 32.7841C30.0957 32.7841 31.4102 40.8287 31.5667 42.671V42.7938L31.4728 42.8552C28.4683 44.4212 25.057 45.2809 21.6456 45.2809C13.1956 45.2809 5.7157 40.3682 2.42957 32.8762C4.36995 41.6885 12.3819 48.1057 21.7395 48.1057C32.662 48.1057 39.1717 39.14 40.2984 32.7534C40.2984 32.7534 41.7693 42.0569 41.8006 42.364H46.276C46.2134 41.9648 43.2403 24.0947 43.209 23.8184C43.209 23.8184 43.209 23.4806 42.896 23.4806V23.3885ZM5.05848 31.2182C5.05848 21.3927 13.5085 13.4095 23.8677 13.4095C30.2835 13.4095 36.2611 16.5721 39.7351 21.6998C37.2 14.6991 30.127 9.90918 22.209 9.90918C11.975 9.90918 3.65013 17.7389 3.65013 27.3494C3.65013 29.99 4.30736 32.5692 5.52792 34.9334C5.24625 33.736 5.05848 32.4771 5.05848 31.2489V31.2182ZM83.4876 30.5734C82.2984 29.2224 80.6396 28.5162 78.6367 28.5162C76.6024 28.5162 74.8811 29.161 73.504 30.4506C72.1583 31.7095 71.4697 33.3982 71.4697 35.4861C71.4697 37.5433 72.127 39.2014 73.4414 40.4296C74.7559 41.6578 76.665 42.2719 79.0435 42.2719C83.6754 42.2719 84.6769 39.14 85.0525 38.1267L83.8632 37.7583C82.7991 39.662 80.4206 39.7848 79.0122 39.6927C78.0107 39.6313 77.1031 39.2935 76.3833 38.8022C75.6635 38.2802 75.1627 37.5433 74.9437 36.4073L74.8811 35.9774H85.2715C85.2402 33.736 84.6456 31.9244 83.4876 30.6041V30.5734ZM75.1314 34.043C74.975 34.043 74.975 33.8895 74.975 33.8281C75.1002 33.0298 75.4131 32.4157 75.9765 31.863C76.6024 31.2182 77.5726 30.8497 78.6054 30.8497C79.5443 30.8497 80.2954 31.1261 80.9526 31.6481C81.4846 32.1086 81.8602 32.7534 82.0793 33.6439C82.1106 33.736 82.1732 34.0123 81.9228 34.0123H75.1314V34.043ZM93.9407 28.4548C89.9973 28.4548 88.589 30.819 88.1508 31.9244C88.1508 31.9551 87.9943 32.3236 87.9943 32.3236L89.3088 32.7534C89.3088 32.7534 90.1538 30.3585 93.5025 30.512C96.8825 30.6348 96.4757 33.3675 96.4757 33.7974C94.5979 33.2447 91.9377 33.3061 90.1851 34.0737C87.9943 35.0563 87.6501 37.0214 87.744 38.4645C87.8378 40.6138 89.7782 42.1183 92.282 42.2411C94.5353 42.364 95.5368 41.8727 96.4757 40.9823L96.4444 42.2411H99.4176V32.8148C99.4802 31.1875 98.3222 28.4241 93.9407 28.4241V28.4548ZM96.4444 39.0786C96.4444 39.2935 96.3818 39.447 96.194 39.5391C95.6307 39.8155 94.4414 40.1839 92.9705 40.0918C91.437 39.969 90.8423 38.8943 90.7484 38.4338C90.7171 38.2495 90.3729 36.2537 92.3446 35.6397C93.6277 35.2405 95.2551 35.4861 96.1314 35.7318C96.3818 35.7932 96.4444 35.9467 96.4444 36.2537V39.1093V39.0786ZM51.8781 23.3885H49.1553C48.7485 23.3885 48.8111 23.7877 48.8111 23.7877V26.6739H52.1598V23.757C52.1598 23.757 52.1911 23.4192 51.8468 23.4192L51.8781 23.3885ZM68.5905 23.3885H65.8051C65.5234 23.3885 65.5234 23.6956 65.5234 23.6956V29.3145L65.1166 29.0996C64.6784 28.8846 64.2402 28.7311 63.7708 28.639C63.3014 28.5469 62.738 28.5162 62.1121 28.5162C59.9213 28.5162 58.1374 29.1303 56.823 30.3892C55.5398 31.6173 54.8513 33.3982 54.8513 35.5782C54.8513 37.5126 55.4146 39.14 56.51 40.4296C57.6054 41.6885 59.2015 42.3333 61.2984 42.3333C64.3028 42.3333 65.4921 40.5524 65.4921 40.5524V42.2719H68.8721V39.0479V23.7263C68.8721 23.7263 68.8721 23.3885 68.5905 23.3885ZM65.3356 38.5566C65.0227 38.8329 64.6158 39.0479 64.1151 39.2321C63.583 39.447 62.9571 39.5391 62.2686 39.5391C61.1419 39.5391 60.2343 39.1707 59.5771 38.4338C58.9198 37.6969 58.6069 36.6222 58.6069 35.1791C58.6069 33.7667 58.9198 32.7227 59.5145 32.0779C60.1404 31.4024 61.0793 31.0647 62.3312 31.0647C62.9884 31.0647 63.6143 31.1568 64.1777 31.3717C64.6784 31.5559 65.054 31.7402 65.3356 31.9858C65.4295 32.0779 65.5234 32.2314 65.5234 32.4464V38.0653C65.5234 38.2802 65.4295 38.4338 65.3356 38.5259V38.5566Z" fill="#A8B1BC"/>
</svg>

<svg width="104" height="64" viewBox="0 0 104 64" fill="none" xmlns="http://www.w3.org/2000/svg"><path d="M48.811 28.608v13.695h3.286V28.608h-3.286zm-5.915-5.22h-3.38c-.376 0-.313.338-.313.338.063.43.156 1.136.156 2.61 0 3.255-.406 7.922-4.037 12.374l-.25.307s-2.19-14.984-2.222-15.26c0 0 0-.338-.313-.338h-3.412c-.312 0-.312.338-.312.338-.094 1.72-1.064 16.15-11.8 18.484 2.285.246 5.04-.46 7.45-1.904 2.973-1.811 4.976-4.482 5.633-7.553 0 0 1.314 8.045 1.47 9.887v.123l-.093.061c-3.005 1.566-6.416 2.426-9.827 2.426-8.45 0-15.93-4.913-19.216-12.405 1.94 8.813 9.952 15.23 19.31 15.23 10.922 0 17.432-8.966 18.558-15.353 0 0 1.471 9.304 1.503 9.611h4.475c-.063-.4-3.036-18.27-3.067-18.546 0 0 0-.337-.313-.337v-.093zm-37.838 7.83c0-9.825 8.45-17.809 18.81-17.809 6.416 0 12.393 3.163 15.867 8.29-2.535-7-9.608-11.79-17.526-11.79-10.234 0-18.559 7.83-18.559 17.44 0 2.641.657 5.22 1.878 7.584-.282-1.197-.47-2.456-.47-3.684v-.03zm78.43-.645c-1.19-1.35-2.848-2.057-4.851-2.057-2.035 0-3.756.645-5.133 1.935-1.346 1.258-2.034 2.947-2.034 5.035 0 2.057.657 3.715 1.971 4.944 1.315 1.228 3.224 1.842 5.602 1.842 4.632 0 5.634-3.132 6.01-4.145l-1.19-.369c-1.064 1.904-3.442 2.027-4.85 1.935a5.249 5.249 0 01-2.63-.89c-.72-.523-1.22-1.26-1.44-2.396l-.062-.43h10.39c-.03-2.241-.625-4.053-1.783-5.373v-.03zm-8.357 3.47c-.156 0-.156-.154-.156-.215.125-.798.438-1.412 1.002-1.965.625-.645 1.596-1.013 2.628-1.013.94 0 1.69.276 2.348.798.532.46.907 1.105 1.126 1.996.032.092.094.368-.156.368H75.13v.031zm18.81-5.588c-3.944 0-5.352 2.364-5.79 3.47 0 .03-.157.399-.157.399l1.315.43s.845-2.395 4.194-2.242c3.38.123 2.973 2.855 2.973 3.285-1.878-.552-4.538-.49-6.29.277-2.192.982-2.536 2.947-2.442 4.39.094 2.15 2.034 3.654 4.538 3.777 2.253.123 3.255-.368 4.194-1.259l-.032 1.26h2.974v-9.427c.062-1.627-1.096-4.39-5.477-4.39v.03zm2.503 10.624c0 .215-.062.368-.25.46-.563.276-1.753.645-3.224.553-1.533-.123-2.128-1.198-2.222-1.658-.03-.184-.375-2.18 1.597-2.794 1.283-.4 2.91-.154 3.786.092.25.061.313.215.313.522v2.855-.03zm-44.566-15.69h-2.723c-.407 0-.344.399-.344.399v2.886h3.349v-2.917s.031-.338-.313-.338l.031-.03zm16.713 0h-2.786c-.282 0-.282.307-.282.307v5.618l-.406-.214a5.36 5.36 0 00-1.346-.461c-.47-.092-1.033-.123-1.659-.123-2.19 0-3.975.614-5.289 1.873-1.283 1.228-1.972 3.01-1.972 5.19 0 1.934.564 3.561 1.659 4.85 1.095 1.26 2.692 1.904 4.788 1.904 3.005 0 4.194-1.78 4.194-1.78v1.719h3.38V23.726s0-.337-.281-.337zm-3.255 15.168c-.313.276-.72.49-1.22.675-.533.215-1.159.307-1.847.307-1.127 0-2.035-.368-2.692-1.105s-.97-1.812-.97-3.255c0-1.412.313-2.456.907-3.101.626-.676 1.565-1.013 2.817-1.013.657 0 1.283.092 1.847.307.5.184.876.368 1.158.614a.636.636 0 01.187.46v5.62a.636.636 0 01-.187.46v.03z" fill="#A8B1BC"/></svg>
